X:1
T:ADAGIO ALBINONI
L:1/8
M:3/4
I:linebreak 
K:Cmaj
V:1
 A,3 B, C2 | B,C D2 CB, | B,4 A,2 | A,6 
 |: E2 D>C B,>A, | A,4 ^G,2 | F2 E>D C>B, | B,4 A,2 |
 A2 GA (3FGE | F6 | G2 FG (3EFD | E6 | 
 F2 EF (3DEC | D6 | E4 F2 | E4 z A |
  Bc BA ^GA |=G4 _BA/G/ | F3 D F>A | E3 C E>A | 
  D4 FE/D/ | C4 ED/C/ | B,4 DC/B,/ | A,6 :| 
